src/icons/svgs/16/chevron-left.svg

<svg width="16" height="16" viewBox="0 0 16 16" fill="none" xmlns="http://www.w3.org/2000/svg">
<path d="M10.2998 14.125C10.0695 14.125 9.83911 14.0396 9.66361 13.8687L4.26361 8.61865C3.91205 8.27686 3.91205 7.72314 4.26361 7.38135L9.66361 2.13135C10.0152 1.78955 10.5847 1.78955 10.9363 2.13135C11.2878 2.47314 11.2878 3.02686 10.9363 3.36865L6.17245 8L10.9368 12.632C11.2884 12.9738 11.2884 13.5275 10.9368 13.8693C10.761 14.0402 10.5304 14.125 10.2998 14.125Z" fill="black"/>
</svg>

<svg width="16" height="16" viewBox="0 0 16 16" xmlns="http://www.w3.org/2000/svg">
    <path d="M10.3 14.125a.91.91 0 0 1-.636-.256l-5.4-5.25a.858.858 0 0 1 0-1.238l5.4-5.25a.918.918 0 0 1 1.272 0 .858.858 0 0 1 0 1.238L6.172 8l4.765 4.632a.858.858 0 0 1 0 1.237.91.91 0 0 1-.637.256z"/>
</svg>
